X: 23848
T: Liverpool, The
R: hornpipe
M: 4/4
K: Dmajor
|:AG|FDFA dfaf|gfec dcBA|Gd BG Fd AF|E^DEF GBAG|
(3FED FA dfaf|gfec dcBA|dfa^g b=gec|1 cd dc dB:|2 cd dc dA||
|:Bc|da fd ca ec|B^ABc dcBA|Gd BG Fd AF|E^DEF GBAG|
(3FED FA dfaf|gfec dcBA|dfa^g b=gec|cd dc d2:|

